X:1
T:That Crazy War
M:4/4
L:1/4
K:C
 E| G G G E| G G G E| G G G A| E2 z G| A A A B| c c c A| c d c A| G2 _B/2 B3/2|\
 G4-| G E D C| C4| z2 z||
